X: 1282
T: Follow Me Down To Carlow
R:Reel
N:2nd Setting
N:Collected By J. O'Neill
B:O'Neill's 1282
Z:Transcribed by Trish O'Neil
M:C|
L:1/8
K:Am
(3ABA A>G E>^FG2|(3ABA A>B c>de>d|c>Bc>G E>^F^G>B|(3ABc >GA2"H"A2:|
e>aa>g e>^fg2|(3BcB B>G G>A (3Bcd|e>aa>g e>^fg2|(3BcB B>GA2A2|
e>aa>g e>^fg2|(3BcB B>A G>A (3Bcd|e>g^f>a g>ag>e|d>BG>B g>dB>G|]


